X:1
T:Itsumo Nando Demo
T:Itsumo nando demo 
T:ending from "Spirited Away"
T:Yumi Kimura 
T:Wakako Kaku
C:Youmi Kimura
Z:Wakako Kaku
%%score ( 1 2 )
L:1/8
Q:1/4=120
M:3/4
K:F
V:1 treble nm="Voice" snm="Vo."
V:2 treble 
V:1
"F""^\n" z6 | z6 |: z6 | z2 z2 FG | AF c3 A |"C" G2 c2 G2 |"Dm" FD A3 F |"Am" E2 z2 E2 | %8
w: |||yo- n-|de- i- ru mu-|ne no do-|ko- ka o- ku-|de i-|
w: |||sa- yo-|na- ra no to-|ki no shi-|zu- ka- na mu-|ne *|
w: |||yo- n-|de- i- ru mu-|ne no do-|ko- ka o- ku-|de i-|
"Bb" D2 E2 FG |"F/A" C2 F2 GA |"G" B2 BA GF |"C" G2 z2 FG |"F" AF c3 A |"C" G2 c2 G2 | %14
w: tsu- mo ko- ko-|ro o- do- ru|yu- me wo mi- ta-|i ka- na-|shi- mi wa ka-|zo- e- ki-|
w: ni na- ru ka-|ra- da ga mi-|mi wo su- ma- se-|ru i- ki-|te- i- ru fu-|shi- gi shin-|
w: tsu- mo na- *|n- do de- mo|yu- me wo e- ga-|kou ka- na-|shi- mi no ka-|zu wo ii-|
"Dm" FD D2 DF |"Am" C2 z2 C2 |"Bb" D2 E2 (FG) |"F/A" C2 F2 GA |"G" B2 BA"C" GF |"F" F6 | z2 z2 AB | %21
w: re- na- i ke- re-|do so-|no mu- kou _|de ki- tto a-|na- ta ni a- e-|ru|ku- ri-|
w: de i- ku fu- shi-|gi ha-|na mo ka- ze|mo ma- chi mo|mi- n- na o- na-|ji|la- la-|
w: tsu- * ku- su yo-|ri o-|na- ji ku- chi-|bi- ru de so-|* tto u- ta- o-|u|to- ji-|
 c2 c2 c2 |"C" c2 cd cB |"Dm" A2 A2 A2 |"Am" A2 (AB) AG |"Dm" F2 F2 FE |"Bb" D2 D2 EF | %27
w: ka- e- su|a- ya- ma- chi no|so- no- ta-|bi hi- * to wa|ta- da a- o-|i so- ra no|
w: la- ... *||||||
w: te- i- ku|o- mo- i- de no|so- no na-|ka * i- tsu- mo|wa- su- re ta-|ku- na- i sa-|
"G" G2 GA GA |"C" G2 z2 AB |"F" c2 c2 c2 |"C" c2 cd cB |"Dm" A2 A2 A2 |"Am" (AB) AG FE | %33
w: a- o- sa wo shi-|ru ha- te-|shi- na- ku|mi- chi wa tsu- zu-|i- te mi-|e- * ru ke- re- do|
w: ||||||
w: sa- ya- ki wo ki-|ku ko- na-|go- na ni|ku- da- ka- re- ta|ka- ga- mi|no u- * e ni- mo|
"Bb" D2 D(E F)G |"F/A" C2 F2 GA |"G" G3 G"C" GF |"F""^3x" F6 :| z6 | z2 z2 FG | AF c3 A | %40
w: ko- no ryou- * te|wa hi- ka- ri|wo i- da- ke-|ru||ha- ji-|ma- ri no a-|
w: |||||||
w: a- ta- ra- shi- i|ke- shi- ki ga|u- tsu- sa- re-|ru||||
"C" G2 c2 G2 |"Dm" FD A3 F |"Am" E2 z2 FE |"Bb" D2 E2 FG |"F/A" C2 F2 (GA) |"G" B2 BA GF | %46
w: sa no shi-|zu- ka na ma-|do ze- ro|ni na- ru ka-|ra- da mi- *|ta- sa- re- te yu-|
w: ||||||
w: ||||||
"C" G2 z2 FG |"F" AF c3 A |"C" G2 c2 G2 |"Dm" F2 F2 FG |"Am" C2 z2 C2 |"Bb" D2 E2 FG | %52
w: ke u- mi|no ka- na- ta|ni- wa mou|sa- ga- sa- na-|i ka-|ga- ya- ku mo|
w: ||||||
w: ||||||
"F/A" C2 F2 z E |"Bb" D2 E2 FG |"F/A" C2 z2 FE |"Bb" D2 E2 (FG) |"F/A" C2 F2 GA |"G" B2 BA"C" GF | %58
w: no wa i-|tsu- mo ko- ko|ni wa- ta-|shi no na- *|ka ni mi- tsu-|ke- ra- re- ta ka-|
w: ||||||
w: ||||||
"F" F6- | F6 | z6 | z2 z2 AB | c2 c2 c2 |"C" c2 cd cB |"Dm" A2 A2 A2 |"Am" A2 AB AG | %66
w: ra|_||la- la-|la- ... *||||
w: ||||||||
w: ||||||||
"Dm" F2 F2 FE |"Bb" D2 E2 EF |"G" G2 GA GA |"C" G2 z2 AB |"F" c2 c2 c2 |"C" c2 cd cB | %72
w: ||||||
w: ||||||
w: ||||||
"Dm" A2 A2 A2 |"Am" AB AG FE |"Bb" z2 DE FG |"F/A" C2 F2 GA |"G" G3 G"C" GF |"F" F6- | F6 | z6 | %80
w: ||||||||
w: ||||||||
w: ||||||||
 z6 |] %81
w: |
w: |
w: |
V:2
 x6 | x6 |: x6 | x6 | x6 | x6 | x6 | x4 FE | x6 | x6 | x6 | x6 | x6 | x6 | x6 | x6 | x6 | x6 | x6 | %19
w: |||||||i *||||||||||||
w: |||||||ze- ro||||||||||||
w: |||||||||||||||||||
 x6 | x6 | x6 | x6 | x6 | AA x4 | x6 | x6 | x6 | x6 | x6 | x6 | x6 | x6 | x6 | x6 | x6 | x6 :| x6 | %38
w: |||||||||||||||||||
w: |||||||||||||||||||
w: |||||* ni||||||||||||||
 x6 | x6 | x6 | x6 | x6 | x6 | x6 | x6 | x6 | x6 | x6 | x6 | x6 | x6 | x6 | x6 | x6 | x6 | x6 | %57
w: |||||||||||||||||||
w: |||||||||||||||||||
w: |||||||||||||||||||
 x6 | x6 | x6 | x6 | x6 | x6 | x6 | x6 | x6 | x6 | x6 | x6 | x6 | x6 | x6 | x6 | x6 | x6 | x6 | %76
w: |||||||||||||||||||
w: |||||||||||||||||||
w: |||||||||||||||||||
 x6 | x6 | x6 | x6 | x6 |] %81
w: |||||
w: |||||
w: |||||

